X:0286
T:Jenny Nettles.
M:C
L:1/8
Q:1/2=96
I: :: :: ||
Z:Jack Campin * www.campin.me.uk * 2009
K:A Dorian
B|c2B2 A2a2|efge        dBGB       |c2B2 A2a2|gegd  e2A:|
B|cdeA cdeA|d/c/B/A/ Gd BGdB       |cdeA cdea|gegd  e2A:|
B|cdef gage|gage        d/c/B/A/ GB|cdef gage|aba^g a2A:|
<end>
<start>
